X:1
T:Bön
T:Bön
T:Bind 2, No. 36
T:Tysk melodi fra 1651, Arr. Joh. D. Behrens
T:Hertug Wilhelm II
C:Tysk melodi fra 1651, Arr. Joh. D. Behrens
Z:Hertug Wilhelm II
%%score [ 1 2 3 4 ]
L:1/8
Q:1/4=96
M:6/4
K:A
V:1 treble-8 nm="T1"
V:2 treble-8 nm="T2"
V:3 bass nm="B1"
V:4 bass nm="B2"
V:1
"^Andante"!mf! A4 | c4 e2 c4 B2 |!<(! c2 ^d2!<)! e4 f4 |!>(! e4 c2!>)! B4 A2 | c2 B2 A4 B4 | %5
w: 1.O|Her- re Krist dig|til os vend, din|Hel- lig- aand ned|til os send, med|
w: 2.Vor|Mund lad op, din|Lov ud- bred, til|An- dagt Hjer- tet|vel be- red, for-|
w: 3.Ind-|til vi syn- ge|med Guds Hær: Du|hel- lig, hel- lig,|hel- lig er, og|
 c4 c2!<(! B4 e2!<)! | e2 ^d2 e4 c4 |!>(! d4 c2 B4!>)! A2 | A2 G2 A4 |] %9
w: Mi- skund- hed du|os re- gjer, og|Sand- heds Vej os|Al- le lær!|
w: øg vor Tro, styrk|vor For- stand, at|vi dit Navn ret|kjen- de kan!|
w: sku- e saa dit|Aa- syn blid i|Him- lens Lys til|e- vig Tid.|
V:2
!mf! A4 | c4 B2 A4 G2 |!<(! A2 B2!<)! B4 d4 |!>(! c4 A2!>)! G4 A2 | A2 G2 A4 G4 | %5
w: 1.O|Her- re Krist dig|til os vend, din|Hel- lig- aand ned|til os send, med|
w: 2.Vor|Mund lad op, din|Lov ud- bred, til|An- dagt Hjer- tet|vel be- red, for-|
w: 3.Ind-|til vi syn- ge|med Guds Hær: Du|hel- lig, hel- lig,|hel- lig er, og|
 A4 A2!<(! G4 c2!<)! | c2 B2 B4 A4 |!>(! B4 A2 G4!>)! A2 | A2 E2 E4 |] %9
w: Mi- skund- hed du|os re- gjer, og|Sand- heds Vej os|Al- le lær!|
w: øg vor Tro, styrk|vor For- stand, at|vi dit Navn ret|kjen- de kan!|
w: sku- e saa dit|Aa- syn blid i|Him- lens Lys til|e- vig Tid.|
V:3
!mf! A,4 | A,4 G,2 A,4 B,2 |!<(! A,2 A,2!<)! G,4 A,4 |!>(! A,4 E,2!>)! G,4 F,2 | E,2 D,2 C,4 E,4 | %5
w: 1.O|Her- re Krist dig|til os vend, din|Hel- lig- aand ned|til os send, med|
w: 2.Vor|Mund lad op, din|Lov ud- bred, til|An- dagt Hjer- tet|vel be- red, for-|
w: 3.Ind-|til vi syn- ge|med Guds Hær: Du|hel- lig, hel- lig,|hel- lig er, og|
 E,4 E,2!<(! E,4 G,2!<)! | A,2 A,2 G,4 E,4 |!>(! E,4 E,2 E,4!>)! E,2 | F,2 E,2 C,4 |] %9
w: Mi- skund- hed du|os re- gjer, og|Sand- heds Vej os|Al- le lær!|
w: øg vor Tro, styrk|vor For- stand, at|vi dit Navn ret|kjen- de kan!|
w: sku- e saa dit|Aa- syn blid i|Him- lens Lys til|e- vig Tid.|
V:4
!mf! A,4 | A,4 E,2 A,4 G,2 |!<(! F,2 F,2!<)! E,4 D,4 |!>(! A,,4 C,2!>)! E,4 F,2 | %4
w: 1.O|Her- re Krist dig|til os vend, din|Hel- lig- aand ned|
w: 2.Vor|Mund lad op, din|Lov ud- bred, til|An- dagt Hjer- tet|
w: 3.Ind-|til vi syn- ge|med Guds Hær: Du|hel- lig, hel- lig,|
 C,2 E,2 A,,4 E,4 | A,,4 C,2!<(! E,4 C,2!<)! | A,,2 B,,2 E,4 A,,4 |!>(! G,,4 A,,2 B,,4!>)! C,2 | %8
w: til os send, med|Mi- skund- hed du|os re- gjer, og|Sand- heds Vej os|
w: vel be- red, for-|øg vor Tro, styrk|vor For- stand, at|vi dit Navn ret|
w: hel- lig er, og|sku- e saa dit|Aa- syn blid i|Him- lens Lys til|
 D,2 E,2 A,,4 |] %9
w: Al- le lær!|
w: kjen- de kan!|
w: e- vig Tid.|

